icon-svg/umage.svg

<svg xmlns="http://www.w3.org/2000/svg" fill="#44739e" viewBox="0 0 24 24"><path d="M22 14.017a15.08 15.08 0 0 0-6.249-2.463c-.212-.027-1.811-.048-3.49-.048-1.759 0-3.606.023-4.039.086A12.95 12.95 0 0 0 2 14.02a107.9 107.9 0 0 1 20-.003M15.4 10.1a4.92 4.92 0 0 1 .178 1.239.25.25 0 0 0 .151.024v-.009a3.39 3.39 0 0 0-.225-1.4.115.115 0 0 0-.067.04.126.126 0 0 0-.037.106m-9.083-.591h.021a2.6 2.6 0 0 0 .26.051c.081.012.217.031.5.078l.457.074a5.4 5.4 0 0 1 .6.159c.087.045.171.078.251.111a1.57 1.57 0 0 1 .689.464 7.26 7.26 0 0 1 .707.944c1.353-.023 3.228-.022 4.517-.007.012-.023.022-.045.034-.069a2.07 2.07 0 0 1 .252-.409 4.34 4.34 0 0 1 .729-.723l-.018-.066a.226.226 0 0 1 .113-.231.111.111 0 0 1 .136 0 .31.31 0 0 1 .065.1 5.1 5.1 0 0 1 .6-.215 6.9 6.9 0 0 1 1.1-.2 3.5 3.5 0 0 0 .638-.115h.008c.186-.062.189-.063.189-.165a.433.433 0 0 0-.2-.162 1.18 1.18 0 0 0-.411-.132h-.008c-.52-.084-.52-.084-1.1-.151a24.6 24.6 0 0 0-2.545-.2l-.137-.007c-.717-.032-.791-.035-1.647-.036-.606 0-.628 0-1.8.046h-.1l-.265.009A23.5 23.5 0 0 0 6.9 8.92c-.6.1-.927.245-.931.336a.19.19 0 0 0 .043.1.523.523 0 0 0 .305.153m5.798-1.038c.737 0 .9 0 1.383.024V6.626a.421.421 0 0 0-.42-.42h-2.071a.411.411 0 0 0-.41.41v1.889c.895-.034.964-.035 1.518-.034m-3.783 2.952a.26.26 0 0 0 .151-.025 5.08 5.08 0 0 1 .157-1.163 1.7 1.7 0 0 0-.158-.078 5.2 5.2 0 0 0-.154 1.256c0 .008.001.008.004.01m.811 2.777.162-.11-.24-.351-.233.008Zm5.851.054.354-.511-.233-.008-.282.408zm-3.027.009h.2v-.577h-.2zm3.049.113-.3-.211.111-.16-.042-.034h-2.534v.379h-.372v-.379h-2.51l-.025.019.083.12-.307.21-.061-.09A4.566 4.566 0 0 0 7.8 16.306h8.434a4.406 4.406 0 0 0-1.134-2.051Zm-5.218 3.145 4.474-.021.147-.988H9.674Z"/></svg>

<?xml version="1.0" encoding="UTF-8"?>
<svg width="24px" fill="#44739e" height="24px" viewBox="0 0 24 24" version="1.1" xmlns="http://www.w3.org/2000/svg" xmlns:xlink="http://www.w3.org/1999/xlink">
            <path d="m 22,14.017 a 15.082,15.082 0 0 0 -6.249,-2.463 c -0.212,-0.027 -1.811,-0.048 -3.49,-0.048 -1.759,0 -3.606,0.023 -4.039,0.086 A 12.951,12.951 0 0 0 2,14.02 107.923,107.923 0 0 1 22,14.017 Z M 15.4,10.1 a 4.919,4.919 0 0 1 0.178,1.239 0.25,0.25 0 0 0 0.151,0.024 c 0,0 0,0 0,-0.009 A 3.391,3.391 0 0 0 15.504,9.954 0.115,0.115 0 0 0 15.437,9.994 0.126,0.126 0 0 0 15.4,10.1 Z m 0.11,-0.15 v 0 z M 6.317,9.509 h 0.021 a 2.569,2.569 0 0 0 0.26,0.051 c 0.081,0.012 0.217,0.031 0.5,0.078 l 0.457,0.074 a 5.377,5.377 0 0 1 0.6,0.159 c 0.087,0.045 0.171,0.078 0.251,0.111 a 1.57,1.57 0 0 1 0.689,0.464 7.262,7.262 0 0 1 0.707,0.944 c 1.353,-0.023 3.228,-0.022 4.517,-0.007 0.012,-0.023 0.022,-0.045 0.034,-0.069 a 2.066,2.066 0 0 1 0.252,-0.409 4.342,4.342 0 0 1 0.729,-0.723 l -0.018,-0.066 a 0.226,0.226 0 0 1 0.113,-0.231 0.111,0.111 0 0 1 0.136,0 v 0 a 0.309,0.309 0 0 1 0.065,0.1 5.072,5.072 0 0 1 0.6,-0.215 6.913,6.913 0 0 1 1.1,-0.2 3.482,3.482 0 0 0 0.638,-0.115 h 0.008 C 18.162,9.393 18.165,9.392 18.165,9.29 a 0.433,0.433 0 0 0 -0.2,-0.162 1.176,1.176 0 0 0 -0.411,-0.132 h -0.008 c -0.52,-0.084 -0.52,-0.084 -1.1,-0.151 a 24.636,24.636 0 0 0 -2.545,-0.2 L 13.764,8.638 C 13.047,8.606 12.973,8.603 12.117,8.602 c -0.606,0 -0.628,0 -1.8,0.046 h -0.1 L 9.952,8.657 A 23.53,23.53 0 0 0 6.9,8.92 C 6.3,9.02 5.973,9.165 5.969,9.256 a 0.189,0.189 0 0 0 0.043,0.1 0.523,0.523 0 0 0 0.305,0.153 z m 5.798,-1.038 c 0.737,0 0.9,0 1.383,0.024 V 6.626 a 0.421,0.421 0 0 0 -0.42,-0.42 h -2.071 a 0.411,0.411 0 0 0 -0.41,0.41 V 8.505 C 11.492,8.471 11.561,8.47 12.115,8.471 Z M 8.332,11.423 A 0.259,0.259 0 0 0 8.483,11.398 5.076,5.076 0 0 1 8.64,10.235 1.65,1.65 0 0 0 8.482,10.157 5.213,5.213 0 0 0 8.328,11.413 c 0,0.008 0.001,0.008 0.004,0.01 z M 9.143,14.2 9.305,14.09 9.065,13.739 8.832,13.747 Z m 5.851,0.054 0.354,-0.511 -0.233,-0.008 -0.282,0.408 z m -3.027,0.009 h 0.2 v -0.577 h -0.2 z m 3.049,0.113 -0.3,-0.211 0.111,-0.16 -0.042,-0.034 H 12.251 V 14.35 H 11.879 V 13.971 H 9.369 L 9.344,13.99 9.427,14.11 9.12,14.32 9.059,14.23 A 4.566,4.566 0 0 0 7.8,16.306 h 8.434 A 4.406,4.406 0 0 0 15.1,14.255 Z M 9.798,17.521 14.272,17.5 14.419,16.512 H 9.674 Z"/>

</svg>
